components/Company/logos/logo-acquia.svg

<svg height="140" viewBox="0 0 400 140" width="400" xmlns="http://www.w3.org/2000/svg"><path d="m333.660916 58.1460772c-3.808382 4.09305-8.3537 5.7785003-14.250657 5.7785003-5.405372 0-10.073661-2.0465253-13.390607-6.1397197-3.316945-4.0930503-5.036903-9.0288978-5.036903-15.2888312 0-5.7785004 1.719958-10.7143475 5.405371-14.8073978 3.685561-4.0931946 8.353849-6.1397197 13.390752-6.1397197 5.896809 0 10.5651 2.0465251 13.882044 6.1397197 3.316947 4.0930503 5.405371 9.0288974 5.405371 15.2888312 0 6.0193612-1.596987 11.0755669-5.405371 15.1686172zm4.66829-35.8748736-2.579865-2.5281029c-5.405369-5.7785002-11.793616-8.6676781-18.918947-8.6676781-7.985233 0-15.110562 2.8891779-20.147319 9.0288976-5.405371 5.7785002-7.985234 13.6035254-7.985234 22.2713479 0 9.0288978 2.948331 16.8539231 7.985234 22.6324231 5.405372 5.7785004 12.653523 9.0288975 20.638756 9.0288975 6.756716 0 12.653525-2.8893221 18.42751-7.8250253l2.088428-2.0466693v8.3066031h12.162231v-59.7110245h-12.162231v9.5103309zm-94.22612 20.585898c0 12.3997978-6.265277 20.2248231-16.830374 20.2248231s-16.830521-7.8250253-16.830521-20.2248231v-30.0962289h-12.162086v30.0962289c0 18.057795 12.162086 31.3002456 28.992607 31.3002456s28.992606-13.1220922 28.992606-31.3002456v-30.0962289h-12.162085v30.0962289zm23.587235 29.61494h12.162086v-59.7111689h-12.162086zm-78.132533-29.1333622c0-17.3355007-13.88219-30.9390262-31.081179-31.6613207-.368468 0-.859906.361075-.368468.8426529 1.22852 2.5281028 4.176851 8.1862447 9.213755 11.9182199 6.756714 4.9357029 10.565097 11.0754226 10.565097 18.5392285 0 9.5104753-7.616766 20.2248228-20.147467 20.2248228-12.653523 0-20.147467-10.7143475-20.147467-20.2248228 0-7.4638059 4.176999-13.6035256 10.565097-18.5392285 5.036904-4.0931947 8.35385-9.3659876 9.213902-11.8940905.368468-.3612195 0-.8426528-.368615-.8426528-17.690426.361075-31.572469 13.9406155-31.572469 31.1556134 0 13.964745 12.162085 30.4575928 31.941084 30.4575928 8.84514 0 16.338937-2.5281028 21.867278-6.9823725l6.265277 5.7785003h17.690426l-16.584729-15.2889756c1.719958-3.6116169 2.948478-8.1862447 2.948478-13.4831672zm-166.8304578 8.1862447 14.2505107-30.9390261 14.373481 30.9390261zm13.8820432-51.5249241c-2.0885731 0-3.8083834 1.20387227-4.6682887 2.88917787l-31.9410847 69.58271933h12.6535229l4.6682886-9.8715503h38.6977988l4.6682885 9.8715503h12.6536706l-31.6954397-69.10114154c-.8599053-2.04652506-2.9483309-3.37075566-5.0367563-3.37075566zm66.8303526 23.1140009c5.405519 0 10.565097 2.046525 13.882191 5.2969224 1.228373-3.7319752 3.316946-6.9823725 5.896809-10.3531282-5.405519-4.0931946-12.162233-6.6212975-19.779-6.6212975-17.6904263.1205028-32.4323748 14.2056062-32.4323748 31.9021818 0 17.3355006 14.2506582 31.6613206 32.3095528 31.6613206 7.616766 0 14.250658-2.5281028 19.778852-6.6211531-2.579863-3.2503972-4.176851-6.6211528-5.896809-10.3531282-3.808236 3.2503976-8.353702 5.2969226-13.882043 5.2969226-11.3021806 0-20.6387578-9.0288975-20.6387578-20.2246785.1228229-10.9550644 9.3365772-19.9839619 20.7615798-19.9839619z" fill-opacity=".85" transform="translate(25 33)"/></svg>

<?xml version="1.0" encoding="UTF-8"?>
<svg width="400px" height="140px" viewBox="0 0 400 140" version="1.1" xmlns="http://www.w3.org/2000/svg" xmlns:xlink="http://www.w3.org/1999/xlink">
    <title>Artboard</title>
    <g id="Artboard" stroke="none" stroke-width="1" fill="none" fill-rule="evenodd" fill-opacity="0.85">
        <g id="Acquia" transform="translate(25.000000, 33.000000)" fill="#000000" fill-rule="nonzero">
            <path d="M333.660916,58.1460772 C329.852534,62.2391272 325.307216,63.9245775 319.410259,63.9245775 C314.004887,63.9245775 309.336598,61.8780522 306.019652,57.7848578 C302.702707,53.6918075 300.982749,48.75596 300.982749,42.4960266 C300.982749,36.7175262 302.702707,31.7816791 306.38812,27.6886288 C310.073681,23.5954342 314.741969,21.5489091 319.778872,21.5489091 C325.675681,21.5489091 330.343972,23.5954342 333.660916,27.6886288 C336.977863,31.7816791 339.066287,36.7175262 339.066287,42.97746 C339.066287,48.9968212 337.4693,54.0530269 333.660916,58.1460772 Z M338.329206,22.2712036 L335.749341,19.7431007 C330.343972,13.9646005 323.955725,11.0754226 316.830394,11.0754226 C308.845161,11.0754226 301.719832,13.9646005 296.683075,20.1043202 C291.277704,25.8828204 288.697841,33.7078456 288.697841,42.3756681 C288.697841,51.4045659 291.646172,59.2295912 296.683075,65.0080912 C302.088447,70.7865916 309.336598,74.0369887 317.321831,74.0369887 C324.078547,74.0369887 329.975356,71.1476666 335.749341,66.2119634 L337.837769,64.1652941 L337.837769,72.4718972 L350,72.4718972 L350,12.7608727 L337.837769,12.7608727 L337.837769,22.2712036 L338.329206,22.2712036 Z M244.103086,42.8571016 C244.103086,55.2568994 237.837809,63.0819247 227.272712,63.0819247 C216.707615,63.0819247 210.442191,55.2568994 210.442191,42.8571016 L210.442191,12.7608727 L198.280105,12.7608727 L198.280105,42.8571016 C198.280105,60.9148966 210.442191,74.1573472 227.272712,74.1573472 C244.103233,74.1573472 256.265318,61.035255 256.265318,42.8571016 L256.265318,12.7608727 L244.103233,12.7608727 L244.103233,42.8571016 L244.103086,42.8571016 Z M267.690321,72.4720416 L279.852407,72.4720416 L279.852407,12.7608727 L267.690321,12.7608727 L267.690321,72.4720416 Z M189.557788,43.3386794 C189.557788,26.0031787 175.675598,12.3996532 158.476609,11.6773587 C158.108141,11.6773587 157.616703,12.0384337 158.108141,12.5200116 C159.336661,15.0481144 162.284992,20.7062563 167.321896,24.4382315 C174.07861,29.3739344 177.886993,35.5136541 177.886993,42.97746 C177.886993,52.4879353 170.270227,63.2022828 157.739526,63.2022828 C145.086003,63.2022828 137.592059,52.4879353 137.592059,42.97746 C137.592059,35.5136541 141.769058,29.3739344 148.157156,24.4382315 C153.19406,20.3450368 156.511006,15.0722439 157.371058,12.544141 C157.739526,12.1829215 157.371058,11.7014882 157.002443,11.7014882 C139.312017,12.0625632 125.429974,25.6421037 125.429974,42.8571016 C125.429974,56.8218466 137.592059,73.3146944 157.371058,73.3146944 C166.216198,73.3146944 173.709995,70.7865916 179.238336,66.3323219 L185.503613,72.1108222 L203.194039,72.1108222 L186.60931,56.8218466 C188.329268,53.2102297 189.557788,48.6356019 189.557788,43.3386794 L189.557788,43.3386794 Z M22.7273302,51.5249241 L36.9778409,20.585898 L51.3513219,51.5249241 L22.7273302,51.5249241 Z M36.6093734,0 C34.5208003,0 32.80099,1.20387227 31.9410847,2.88917787 L0,72.4718972 L12.6535229,72.4718972 L17.3218115,62.6003469 L56.0196103,62.6003469 L60.6878988,72.4718972 L73.3415694,72.4718972 L41.6461297,3.37075566 C40.7862244,1.3242306 38.6977988,0 36.6093734,0 L36.6093734,0 Z M103.439726,23.1140009 C108.845245,23.1140009 114.004823,25.1605259 117.321917,28.4109233 C118.55029,24.6789481 120.638863,21.4285508 123.218726,18.0577951 C117.813207,13.9646005 111.056493,11.4364976 103.439726,11.4364976 C85.7492997,11.5570004 71.0073512,25.6421038 71.0073512,43.3386794 C71.0073512,60.67418 85.2580094,75 103.316904,75 C110.93367,75 117.567562,72.4718972 123.095756,68.3788469 C120.515893,65.1284497 118.918905,61.7576941 117.198947,58.0257187 C113.390711,61.2761163 108.845245,63.3226413 103.316904,63.3226413 C92.0147234,63.3226413 82.6781462,54.2937438 82.6781462,43.0979628 C82.8009691,32.1428984 92.0147234,23.1140009 103.439726,23.1140009 L103.439726,23.1140009 Z" id="Logo"></path>
        </g>
    </g>
</svg>
